images_breeze_svg/cmd/32/toolbarmode.svg

<svg height="32" viewBox="0 0 32 32" width="32" xmlns="http://www.w3.org/2000/svg"><path d="m4 5v6h24v-6zm1 1h22v4h-22z" fill="#1d99f3" stroke-width="1.33333"/><path d="m4 12v14.861328l1-.542969v-14.318359zm23 0v2.402344l.521484-.283203a1.0012138 1.0012138 0 0 1 .136719-.060547l.341797-.177735v-1.880859zm.998047 3-23.998047 13h2.0976562 21.9003908v-1-10.863281zm-1 1.679688v10.320312h-19.0546876z" fill="#4d4d4d"/></svg>

<?xml version="1.0" encoding="UTF-8" standalone="no"?>
<svg
   xmlns:dc="http://purl.org/dc/elements/1.1/"
   xmlns:cc="http://creativecommons.org/ns#"
   xmlns:rdf="http://www.w3.org/1999/02/22-rdf-syntax-ns#"
   xmlns:svg="http://www.w3.org/2000/svg"
   xmlns="http://www.w3.org/2000/svg"
   xmlns:sodipodi="http://sodipodi.sourceforge.net/DTD/sodipodi-0.dtd"
   xmlns:inkscape="http://www.inkscape.org/namespaces/inkscape"
   viewBox="0 0 32 32"
   version="1.1"
   id="svg4"
   sodipodi:docname="toolbarmode.svg"
   width="32"
   height="32"
   inkscape:version="0.92.4 (unknown)"
   inkscape:export-filename="/home/rizmut/Dokumen/Rizmut/Github/tmp/breeze/cmd/32/toolbarmode.png"
   inkscape:export-xdpi="96"
   inkscape:export-ydpi="96">
  <metadata
     id="metadata10">
    <rdf:RDF>
      <cc:Work
         rdf:about="">
        <dc:format>image/svg+xml</dc:format>
        <dc:type
           rdf:resource="http://purl.org/dc/dcmitype/StillImage" />
        <dc:title></dc:title>
      </cc:Work>
    </rdf:RDF>
  </metadata>
  <defs
     id="defs8" />
  <sodipodi:namedview
     pagecolor="#ffffff"
     bordercolor="#666666"
     borderopacity="1"
     objecttolerance="10"
     gridtolerance="10"
     guidetolerance="10"
     inkscape:pageopacity="0"
     inkscape:pageshadow="2"
     inkscape:window-width="1360"
     inkscape:window-height="714"
     id="namedview6"
     showgrid="true"
     inkscape:zoom="11.313709"
     inkscape:cx="9.1414793"
     inkscape:cy="12.887925"
     inkscape:window-x="0"
     inkscape:window-y="28"
     inkscape:window-maximized="1"
     inkscape:current-layer="svg4"
     inkscape:snap-global="false">
    <inkscape:grid
       type="xygrid"
       id="grid817" />
  </sodipodi:namedview>
  <path
     style="fill:#1d99f3;stroke-width:1.33333004;fill-opacity:1"
     d="m 4,5 v 6 H 28 V 5 Z m 1,1 h 22 v 4 H 5 Z"
     id="path2"
     inkscape:connector-curvature="0"
     sodipodi:nodetypes="cccccccccc" />
  <path
     style="fill:#4d4d4d;stroke:none;fill-opacity:1"
     d="M 4 12 L 4 26.861328 L 5 26.318359 L 5 12 L 4 12 z M 27 12 L 27 14.402344 L 27.521484 14.119141 A 1.0012138 1.0012138 0 0 1 27.658203 14.058594 L 28 13.880859 L 28 12 L 27 12 z M 27.998047 15 L 4 28 L 6.0976562 28 L 27.998047 28 L 27.998047 27 L 27.998047 16.136719 L 27.998047 15 z M 26.998047 16.679688 L 26.998047 27 L 7.9433594 27 L 26.998047 16.679688 z "
     id="path2-7" />
</svg>
